X: 1
T: Charlie Gore's Birthday
C: John Turner
B: John Turners Melodies (W Virginia 1984)
Z: Nigel Gatherer <gatherer:argonet.co.uk>
N: 1st two notes changed from "f>g"
M: 6/8
L: 1/8
K: D
f/g/ \
| a>gf gfe | d2f A2d | B>AG AFD | E2C A,2G \
| A>FA dcd | B>dg b2^g | a>=gf gfe | dAF D2 :|
|: A \
| d>Ad eA=c | B2A G2B | e>^de fed | c>AE A,2G \
| (3F/E/F/ AF DEF | GBd g2 f/e/ | dcA G.E2 | D3-D2 :|
